X:33
T: Siji hua
N: C0043
O: China, Ningxia, Haiyuan
S: I, 165]
N: neues Volkslied
R: Xiaodiao. Xin minge]
M: 2/4
L: 1/16
K: F
c4f2d2 | c4A2G2 | c4A2c2 | AGF2G4
c4c4 | c4c4 | c2A2c2d2 | AGF2G4
F2F4F2 | d4c4 | A4A2c2 | A4G2F2
A3GF2A2 | GFD2C4
c4E4 | c4E4 | c2A2c2d2 | A4G2F2
A3GF2A2 | GFDFC4
d2dcd2dc | d2A2A4
d2c2d2c2 | A2c2A4
c2AcA4 | dcA2c4
d2c2d2c2 | d2A2A4
A3cA2G2 | c2F4G2
A3cA2G2 | c2F4G2
c4c4 | AGF2G4 | c3Ac2d2 | A4G2F2
A3GF2A2 | GFDFC4

